X:1
T:St. Alban (Steggall), 87.87
T:St. Alban (Steggall), 87.87
T:Charles Henry Steggall (1826-1905)
T:Public Domain Courtesy of the Cyber Hymnal™
C:Charles Henry Steggall (1826-1905)
Z:Public Domain
Z:Courtesy of the Cyber Hymnal™
%%score ( 1 2 ) ( 3 4 )
L:1/8
Q:1/4=105
M:4/4
K:C
V:1 treble 
V:2 treble 
V:3 bass 
V:4 bass 
V:1
 E2 | c3 z B [CA]2 [Fc]2 | [Ge]2 [Fd]2 [EB]2 [Ec]2 | [FA]3 [FB] [E^G]2 [EA]2 | F4 [B,E]2 [B,E]2 | %5
 [EA]3 [EB] [Ec]2 [Ae]2 | [Ad]2 d2 [Ee]2 d2 | [Ac]3 [^GB] [Ac]2 [FA]2 | ^G4 [CA]2 |] %9
V:2
 E2 | E2 D2 x5 | x8 | x8 | (D2 C2) x4 | x8 | x2 (GF) x (^F^G) x | x8 | (E2 D2) x2 |] %9
V:3
 [A,C]2 | [^G,E]2 [E,G,]2 [F,A,]2 [F,A,]2 x | [C,C]2 (B,A,) [E,^G,]2 A,2 | %3
 [F,C]3 [D,D] [E,B,]2 [C,C]2 | (B,2 A,2) [E,^G,]2 [D,G,]2 | [C,A,]3 [B,,^G,] [A,,A,]2 C2 | %6
 [F,C]2 [G,B,]2 [C,C]2 [B,,D]2 | [A,,E]3 [E,D] [A,C]2 [D,D]2 | [E,B,]4 [A,,A,]2 |] %9
V:4
 x2 | x9 | x2 D,2 x A,2 x | x8 | D,4 x4 | x6 (A,=G,) | x8 | x8 | x6 |] %9

